X: 1
%
T:Orange and Blue [1]
M:C
L:1/8
R:Highland Schottische
B:Moffat - Dance Music of the North (1908, No. 43, p. 18)
Z:AK/Fiddler's Companion
K:A
e/d/|c<A A2 E<A A2|(c>A)(e>c) A2- AB/c/|d<B B2 F<B B2|(G<E)B>G E2- Ee/d/|
c<A A2 E<A A2|(c>A)(e>c) A2- Ad/e/|(f>d)(e>c) (d>B)(c>A)|(G>E) (3E/F/G A2-A||
e|c<e e2 c<e e2|(c>A)(e>c) A2- AB/c/|d<f f2 d<f f2|(d>B)(f>d) B2- Bc/d/|
c<ee2 c<ee2|(c>A)(e>c) A2- Ad/e/|(f>d)(e>c) (d>B)(c>A)|(G>E) (3EFG A2-A||





